X:4916
T:Paddy Clancy's
O:england
M:6/8
L:1/8
Q:180
C:Trad
R:jig
K:D
afd edB|dcd AFA|dcd ede|fef efg|
afd edB|dcd AFA|dcd efg|fdd d3:|
faf gbg|faf fed|fef gfg|afd e2 d|
faf gbg|faf fed|fef ede fdd d3:|


